public/avatar/hat/18.svg

<svg xmlns:xlink="http://www.w3.org/1999/xlink" height="92.9" width="100.7" xmlns="http://www.w3.org/2000/svg"><use height="26.6" transform="translate(16.65 40.95)" width="43.45" xlink:href="#a"/><defs><g id="a"><path d="M2.5-.5q2.1 0 4-.7L5.1-2Q3.25-3.15 1.15-3.75l-4.65.5L1.05-1.9q-1.3.8-2.9.9l4.35.5m-12.9-7.8Q-7-4.35 0-5.65 6.95-7 9.5.2l4.45.3q1.8.65 3.35 1.7l-2.1.25Q18 7.8 14 13l1.7 1.85q1.35 1.05 1.55.65 1.8-.15 2.4-2.25l-.15-.3-.35-.25q-.5-.05-1.65.7.8-1.95 1.15-2.1l.5-.2.5-.15q.25-.05 1.05 1.35.8 1.35-1.2 3.6-2.05 2.2-4.35.95-3.85-2.1-4.1-7.15-.1-1.55-.9-2.95L8.4 4l-4.05-.1L1.7 2.8l2.5-.45 1.7-.65-3.75.45-3.55-.2q-1.75-.2-4.3 2.55.4-2.75 2-3.35-.8 0-3.65 2.05-2.85 2.05-4.35 5.75l-.95 1.85q-.05 3.7-3.25 5.35-6 .75-5.55-2.75.45-3.55 3.55-1.2-3.35.15-2.15 1.9 1.15 1.7 4-.65l.15-.35q1-2 1.25-4.15l-.1-.4q-.85-2.85-.5-4.75.35-1.95.85-2.65t2.35-1.4L-14-.65l-2.3-.15q3.8-2.35 7.5-2.8-.65-.2-1.2-1.3-.75-1.55-.4-3.4M12 2.75q1.85 2.95.8 6.2l1.1-2.05Q15 3.75 12 2.75m-25.2 1.9.7-.75q2.4-2.85 5.8-4.4-1.75.15-3.15.85-2.75 1.25-3.35 4.3" fill="#630" fill-rule="evenodd" transform="translate(22 8.8)"/><path d="M2.5-.5-1.85-1q1.6-.1 2.9-.9L-3.5-3.25l4.65-.5q2.1.6 3.95 1.75l1.4.8q-1.9.7-4 .7m-15.7 5.15q.6-3.05 3.35-4.3 1.4-.7 3.15-.85-3.4 1.55-5.8 4.4l-.7.75M12 2.75q3 1 1.9 4.15l-1.1 2.05q1.05-3.25-.8-6.2" fill="#ba5d00" fill-rule="evenodd" transform="translate(22 8.8)"/><path d="M-10.4-8.3Q-7-4.35 0-5.65 6.95-7 9.5.2l4.45.3q1.8.65 3.35 1.7l-2.1.25Q18 7.8 14 13l1.7 1.85q1.35 1.05 1.55.65 1.8-.15 2.4-2.25l-.15-.3-.35-.25q-.5-.05-1.65.7.8-1.95 1.15-2.1l.5-.2.5-.15q.25-.05 1.05 1.35.8 1.35-1.2 3.6-2.05 2.2-4.35.95-3.85-2.1-4.1-7.15-.1-1.55-.9-2.95L8.4 4l-4.05-.1L1.7 2.8l2.5-.45 1.7-.65-3.75.45-3.55-.2q-1.75-.2-4.3 2.55.4-2.75 2-3.35-.8 0-3.65 2.05-2.85 2.05-4.35 5.75l-.95 1.85q-.05 3.7-3.25 5.35-6 .75-5.55-2.75.45-3.55 3.55-1.2-3.35.15-2.15 1.9 1.15 1.7 4-.65l.15-.35q1-2 1.25-4.15l-.1-.4q-.85-2.85-.5-4.75.35-1.95.85-2.65t2.35-1.4L-14-.65l-2.3-.15q3.8-2.35 7.5-2.8-.65-.2-1.2-1.3-.75-1.55-.4-3.4Z" fill="none" stroke="#3d1e00" stroke-linecap="round" stroke-linejoin="round" transform="translate(22 8.8)"/></g></defs></svg>

<?xml version="1.0" encoding="UTF-8" standalone="no"?>
<svg xmlns:xlink="http://www.w3.org/1999/xlink" height="92.9px" width="100.7px" xmlns="http://www.w3.org/2000/svg">
  <g transform="matrix(1.0, 0.0, 0.0, 1.0, 38.65, 49.75)">
    <use height="26.6" transform="matrix(1.0, 0.0, 0.0, 1.0, -22.0, -8.8)" width="43.45" xlink:href="#shape0"/>
  </g>
  <defs>
    <g id="shape0" transform="matrix(1.0, 0.0, 0.0, 1.0, 22.0, 8.8)">
      <path d="M2.5 -0.5 Q4.6 -0.5 6.5 -1.2 L5.1 -2.0 Q3.25 -3.15 1.15 -3.75 L-3.5 -3.25 1.05 -1.9 Q-0.25 -1.1 -1.85 -1.0 L2.5 -0.5 M-10.4 -8.3 Q-7.0 -4.35 0.0 -5.65 6.95 -7.0 9.5 0.2 L13.95 0.5 Q15.75 1.15 17.3 2.2 L15.2 2.45 Q18.0 7.8 14.0 13.0 L15.7 14.85 Q17.05 15.9 17.25 15.5 19.05 15.35 19.65 13.25 L19.5 12.95 19.15 12.7 Q18.65 12.65 17.5 13.4 18.3 11.45 18.65 11.3 L19.15 11.1 19.65 10.95 Q19.9 10.9 20.7 12.3 21.5 13.65 19.5 15.9 17.45 18.1 15.15 16.85 11.3 14.75 11.05 9.7 10.95 8.15 10.15 6.75 L8.4 4.0 4.35 3.9 1.7 2.8 4.2 2.35 5.9 1.7 2.15 2.15 -1.4 1.95 Q-3.15 1.75 -5.7 4.5 -5.3 1.75 -3.7 1.15 -4.5 1.15 -7.35 3.2 -10.2 5.25 -11.7 8.95 L-12.65 10.8 Q-12.7 14.5 -15.9 16.15 -21.9 16.9 -21.45 13.4 -21.0 9.85 -17.9 12.2 -21.25 12.35 -20.05 14.1 -18.9 15.8 -16.05 13.45 L-15.9 13.1 Q-14.9 11.1 -14.65 8.95 L-14.75 8.55 Q-15.6 5.7 -15.25 3.8 -14.9 1.85 -14.4 1.15 -13.9 0.45 -12.05 -0.25 L-14.0 -0.65 -16.3 -0.8 Q-12.5 -3.15 -8.8 -3.6 -9.45 -3.8 -10.0 -4.9 -10.75 -6.45 -10.4 -8.3 M12.0 2.75 Q13.85 5.7 12.8 8.95 L13.9 6.9 Q15.0 3.75 12.0 2.75 M-13.2 4.65 L-12.5 3.9 Q-10.1 1.05 -6.7 -0.5 -8.45 -0.35 -9.85 0.35 -12.6 1.6 -13.2 4.65" fill="#663300" fill-rule="evenodd" stroke="none"/>
      <path d="M2.5 -0.5 L-1.85 -1.0 Q-0.25 -1.1 1.05 -1.9 L-3.5 -3.25 1.15 -3.75 Q3.25 -3.15 5.1 -2.0 L6.5 -1.2 Q4.6 -0.5 2.5 -0.5 M-13.2 4.65 Q-12.6 1.6 -9.85 0.35 -8.45 -0.35 -6.7 -0.5 -10.1 1.05 -12.5 3.9 L-13.2 4.65 M12.0 2.75 Q15.0 3.75 13.9 6.9 L12.8 8.95 Q13.85 5.7 12.0 2.75" fill="#ba5d00" fill-rule="evenodd" stroke="none"/>
      <path d="M-10.4 -8.3 Q-7.0 -4.35 0.0 -5.65 6.95 -7.0 9.5 0.2 L13.95 0.5 Q15.75 1.15 17.3 2.2 L15.2 2.45 Q18.0 7.8 14.0 13.0 L15.7 14.85 Q17.05 15.9 17.25 15.5 19.05 15.35 19.65 13.25 L19.5 12.95 19.15 12.7 Q18.65 12.65 17.5 13.4 18.3 11.45 18.65 11.3 L19.15 11.1 19.65 10.95 Q19.9 10.9 20.7 12.3 21.5 13.65 19.5 15.9 17.45 18.1 15.15 16.85 11.3 14.75 11.05 9.7 10.95 8.15 10.15 6.75 L8.4 4.0 4.35 3.9 1.7 2.8 4.2 2.35 5.9 1.7 2.15 2.15 -1.4 1.95 Q-3.15 1.75 -5.7 4.5 -5.3 1.75 -3.7 1.15 -4.5 1.15 -7.35 3.2 -10.2 5.25 -11.7 8.95 L-12.65 10.8 Q-12.7 14.5 -15.9 16.15 -21.9 16.9 -21.45 13.4 -21.0 9.85 -17.9 12.2 -21.25 12.35 -20.05 14.1 -18.9 15.8 -16.05 13.45 L-15.9 13.1 Q-14.9 11.1 -14.65 8.95 L-14.75 8.55 Q-15.6 5.7 -15.25 3.8 -14.9 1.85 -14.4 1.15 -13.9 0.45 -12.05 -0.25 L-14.0 -0.65 -16.3 -0.8 Q-12.5 -3.15 -8.8 -3.6 -9.45 -3.8 -10.0 -4.9 -10.75 -6.45 -10.4 -8.3 Z" fill="none" stroke="#3d1e00" stroke-linecap="round" stroke-linejoin="round" stroke-width="1.0"/>
    </g>
  </defs>
</svg>
